X: 347
T: THE ROAD TO HOLLYHILL
T: An bothar go Cnoch-chuileann
B: O'Neill's 347
M: 3/4
L: 1/8
Z: 1999 by John Chambers <jc@trillian.mit.edu>
N: "Slow"
N: "Collected by J.O'Neill"
K:AMix
A AB \
| c2 dc/d/ ee | f2 dc/d/ ea | e2 d>B AA | G2- G/A/B/G/ AB |
| c2 dc/d/ ef | g>f ed ea | e2 d>B AA | A3 ||
|| e ef/g/ \
| a>g fe fg | f>e d(c/d/) ea | e2 d>B AA | G>A B/A/G/B/ AA |
| c2 dc/d/ ef | g>f ed ea | e2 d>B AA | A3 ||


